icons/Logos/baidu-fill.svg

<svg viewBox="0 0 24 24" xmlns="http://www.w3.org/2000/svg"><path d="M5.92636 12.4965C7.98921 12.0535 7.70815 9.5883 7.64641 9.04949C7.54538 8.21882 6.56836 6.76688 5.24162 6.88173C3.57208 7.03154 3.32815 9.44324 3.32815 9.44324C3.10235 10.558 3.86869 12.9399 5.92636 12.4965ZM8.11701 16.7845C8.05656 16.9577 7.92186 17.4011 8.03843 17.787C8.26855 18.6531 9.02021 18.692 9.02021 18.692H10.1004V16.0514H8.94379C8.42397 16.2064 8.17313 16.611 8.11701 16.7845ZM9.75503 8.36259C10.8944 8.36259 11.8153 7.0514 11.8153 5.43022C11.8153 3.81076 10.8944 2.5 9.75503 2.5C8.61739 2.5 7.69433 3.81076 7.69433 5.43022C7.69433 7.0514 8.61783 8.36259 9.75503 8.36259ZM14.6622 8.55644C16.1849 8.75418 17.1641 7.12911 17.3588 5.89736C17.5574 4.66733 16.5748 3.23871 15.4967 2.99305C14.4165 2.74523 13.0678 4.47564 12.9447 5.60378C12.7979 6.98275 13.142 8.36087 14.6622 8.55644ZM14.6617 12.0039C12.7975 9.09914 10.1492 10.2812 9.26328 11.7587C8.38123 13.2356 7.00657 14.1699 6.81143 14.4173C6.61326 14.6608 3.9654 16.0903 4.55343 18.701C5.14103 21.31 7.20561 21.2604 7.20561 21.2604C7.20561 21.2604 8.72706 21.4102 10.492 21.0152C12.2578 20.6236 13.778 21.1127 13.778 21.1127C13.778 21.1127 17.9024 22.4939 19.031 19.8352C20.1582 17.1757 18.3933 15.7967 18.3933 15.7967C18.3933 15.7967 16.0373 13.9739 14.6617 12.0039ZM8.65496 19.7536C7.49703 19.5226 7.03593 18.7325 6.97765 18.5978C6.92066 18.461 6.59167 17.8259 6.76566 16.7453C7.26605 15.1262 8.69295 15.0101 8.69295 15.0101H10.1203V13.2555L11.3361 13.2741V19.7536H8.65496ZM13.2448 19.735C12.0489 19.4268 11.9932 18.5771 11.9932 18.5771V15.1651L13.2448 15.1448V18.2114C13.3212 18.5387 13.7275 18.5978 13.7275 18.5978H14.9989V15.1651H16.3304V19.735H13.2448ZM20.6983 10.6249C20.6983 10.0356 20.2087 8.26113 18.3933 8.26113C16.5748 8.26113 16.3317 9.93585 16.3317 11.1197C16.3317 12.2495 16.4271 13.8267 18.686 13.7766C20.9457 13.7265 20.6983 11.2173 20.6983 10.6249Z"/></svg>

<svg xmlns="http://www.w3.org/2000/svg" viewBox="0 0 24 24">
    <g>
        <path fill="none" d="M0 0h24v24H0z"/>
        <path fill-rule="nonzero" d="M5.927 12.497c2.063-.443 1.782-2.909 1.72-3.448-.101-.83-1.078-2.282-2.405-2.167-1.67.15-1.913 2.561-1.913 2.561-.226 1.115.54 3.497 2.598 3.054zm2.19 4.288c-.06.173-.195.616-.078 1.002.23.866.982.905.982.905h1.08v-2.64H8.944c-.52.154-.77.559-.827.733zm1.638-8.422c1.14 0 2.06-1.312 2.06-2.933 0-1.62-.92-2.93-2.06-2.93-1.137 0-2.06 1.31-2.06 2.93 0 1.621.923 2.933 2.06 2.933zm4.908.193c1.522.198 2.501-1.427 2.696-2.659.199-1.23-.784-2.658-1.862-2.904-1.08-.248-2.429 1.483-2.552 2.61-.147 1.38.197 2.758 1.718 2.953zm0 3.448c-1.865-2.905-4.513-1.723-5.4-.245-.881 1.477-2.256 2.41-2.451 2.658-.198.244-2.846 1.673-2.258 4.284.587 2.609 2.652 2.56 2.652 2.56s1.521.15 3.286-.246c1.766-.391 3.286.098 3.286.098s4.125 1.38 5.253-1.278c1.128-2.66-.637-4.038-.637-4.038s-2.356-1.823-3.732-3.793zm-6.008 7.75c-1.158-.231-1.619-1.021-1.677-1.156-.057-.137-.386-.772-.212-1.853.5-1.619 1.927-1.735 1.927-1.735h1.428v-1.755l1.215.02v6.479h-2.68zm4.59-.019c-1.196-.308-1.251-1.158-1.251-1.158v-3.412l1.251-.02v3.066c.077.328.483.387.483.387h1.271v-3.433h1.332v4.57h-3.086zm7.454-9.11c0-.59-.49-2.364-2.305-2.364-1.819 0-2.062 1.675-2.062 2.859 0 1.13.095 2.707 2.354 2.657 2.26-.05 2.013-2.56 2.013-3.152z"/>
    </g>
</svg>
